!!!ONB: MCCC : IWM0403_02 : Extracted Monophonic Melody
!!!COM: Mozart, Wolfgang Amadeus
!!!OPR: Piano Sonata No.3
!!!OMV: 2
!!!SCT: K.281 ; K⁶.189f
!!!ODT: 1774///
**kern
*thru
*staff1
*>A
*clefG2
*k[b-e-a-]
*E-:
*M3/8
*MM72
8bb-
8aa-
=2
8gg
8ff
8ee-
=3
8dd
8cc
8b-
=4
4.b-[
=5
8b-]
8cc
8dd
=6
4ee-
8cc
=7
4b-
16a-
32g
32a-
=8
8g
8dd
8ee-
=9
8r
8bb-
8gg
=10
16r
16ff
16gg
16aa-
16bb-
16ccc
=11
16ccc
16bb-
16aa-
16gg
16ff
16dd
=12
24ee-
24b-
24g
24b-
24g
24e-
24d
24f
24a-
=13
24g
24b-
24g
24ee-
24b-
24g
24a-
24f
24d
=14
8e-
8r
8e-
=15
8e-
8r
8r
=16
[8gg
32gg]
32aa-
32gg
32ff
8ee-
=17
8r
8bb-
8bb-
=18
[8ff
32ff]
32gg
32ff
32ee-
8dd
=19
8r
8bb-
8bb-
=20
16bb-
16aa
16ccc
16aa
16ff
16ee-
=21
8dd
8r
8bb-
=22
16bb-
16aa
16ccc
16aa
16ff
16ee-
=23
8dd
8r
8dd
=24
8cc
8r
8ee-
=25
8r
8gg
32ff
32ee-
32dd
32cc
=26
4b-
8a
=27
4.r
=28
8r
24ff
24dd
24ee-
24ff
24dd
24ee-
=29
8ff
8gg
8ee-
=30
8r
24ee-
24cc
24dd
24ee-
24cc
24dd
=31
8ee-
8ff
8dd
=32
8b-
8bb-
8bb-
=33
16aa
16gg
16ff
16ee-
16dd
16cc
=34
4b-
16cc
16a
=35
8b-
8r
8r
=36
8b-
8bb-
8bb-
=37
16aa
16gg
16ff
16ee-
16dd
16cc
=38
4b-
16cc
16a
=39
8aa-
8gg
8bb-
=40
4dd
16ee-
16cc
=41
8aa-
8gg
8bb-
=42
4dd
16ee-
16cc
=43
*Xtuplet
24b-
24dd
24ff
24bb-
24ff
24dd
24ee-
24cc
24a
=44
24b-
24dd
24f
24b-
24f
24d
24e-
24c
24A
=45
8B-
8r
8B-
=46
8B-
8r
8r
=47
*>A
*M3/8
8r
8bb-
8aa-
=48
8gg
8ff
8ee-
=49
8dd
8cc
8b-
=50
4.b-[
=51
8b-]
8cc
8dd
=52
4ee-
8cc
=53
4b-
16a-
32g
32a-
=54
8g
8dd
8ee-
=55
8r
8bb-
8gg
=56
16r
16ff
16gg
16aa-
16bb-
16ccc
=57
16ccc
16bb-
16aa-
16gg
16ff
16dd
=58
24ee-
24b-
24g
24b-
24g
24e-
24d
24f
24a-
=59
24g
24b-
24g
24ee-
24b-
24g
24a-
24f
24d
=60
8e-
8r
8e-
=61
8e-
8r
8r
=62
[8gg
32gg]
32aa-
32gg
32ff
8ee-
=63
8r
8bb-
8bb-
=64
[8ff
32ff]
32gg
32ff
32ee-
8dd
=65
8r
8bb-
8bb-
=66
16bb-
16aa
16ccc
16aa
16ff
16ee-
=67
8dd
8r
8bb-
=68
16bb-
16aa
16ccc
16aa
16ff
16ee-
=69
8dd
8r
8dd
=70
8cc
8r
8ee-
=71
8r
8gg
32ff
32ee-
32dd
32cc
=72
4b-
8a
=73
4.r
=74
8r
24ff
24dd
24ee-
24ff
24dd
24ee-
=75
8ff
8gg
8ee-
=76
8r
24ee-
24cc
24dd
24ee-
24cc
24dd
=77
8ee-
8ff
8dd
=78
8b-
8bb-
8bb-
=79
16aa
16gg
16ff
16ee-
16dd
16cc
=80
4b-
16cc
16a
=81
8b-
8r
8r
=82
8b-
8bb-
8bb-
=83
16aa
16gg
16ff
16ee-
16dd
16cc
=84
4b-
16cc
16a
=85
8aa-
8gg
8bb-
=86
4dd
16ee-
16cc
=87
8aa-
8gg
8bb-
=88
4dd
16ee-
16cc
=89
*Xtuplet
24b-
24dd
24ff
24bb-
24ff
24dd
24ee-
24cc
24a
=90
24b-
24dd
24f
24b-
24f
24d
24e-
24c
24A
=91
8B-
8r
8B-
=92
8B-
8r
8r
=93
*>B
*tuplet
24r
24a
24b-
*Xtuplet
24cc
24a
24b-
24cc
24a
24b-
=94
4bb-
8dd
=95
24ee-
24a
24b-
24cc
24a
24b-
24cc
24a
24b-
=96
4bb-
8ee
=97
24ff
24a
24b-
24cc
24a
24b-
24cc
24a
24b-
=98
4bb-
8ff
=99
8r
8gg-
8ee-
=100
8r
8ee-
8a
=101
8r
8b-
8dd
=102
8ff
8aa
8bb-
=103
8b-
8r
8a-
=104
8a-
8r
8r
=105
*tuplet
8r
24bb-
24ccc
24bb-
24aa-
24bb-
24aa-
=106
24gg
24aa-
24gg
24ff
24gg
24ff
24ee-
24ff
24ee-
=107
24dd
24ee-
24dd
24cc
24dd
24cc
[8b-
=108
4.b-_
=109
8b-]
8cc
8dd
=110
24ee-
24gg
24ff
24ee-
24dd
24ee-
24cc
24dd
24cc
=111
4b-
16a-
32g
32a-
=112
8g
8dd
8ee-
=113
8r
8bb-
8gg
=114
16r
16ff
16gg
16aa-
16bb-
16ccc
=115
16ccc
16bb-
16aa-
16gg
16ff
16dd
=116
*tuplet
24ee-
24b-
24g
*Xtuplet
24b-
24g
24e-
24d
24f
24a-
=117
24g
24b-
24g
24ee-
24b-
24g
24a-
24f
24d
=118
8e-
8r
8e-
=119
8e-
8r
8r
=120
[8ee-
32ee-]
32ff
32ee-
32dd-
8cc
=121
8r
8aa-
8aa-
=122
[8gg
32gg]
32aa-
32bb-
32aa-
8gg
=123
8r
8ddd-
8ddd-
=124
[8ccc
32ccc]
32ddd-
32eee-
32ddd-
8ccc
=125
8r
8ff
8ff
=126
16ff
16ee
16gg
16ee
16cc
16b-
=127
8a-
8r
8ee-
=128
16ee-
16dd
16ff
16dd
16b-
16a-
=129
8g
8r
8gg
=130
8ff
8r
8aa-
=131
8r
8ccc
32bb-
32aa-
32gg
32ff
=132
4ee-
8dd
=133
4.r
=134
8r
*tuplet
24bb-
24gg
24aa-
24bb-
24gg
24aa-
=135
*Xtuplet
8bb-
8ccc
8aa-
=136
8r
*tuplet
24aa-
24ff
24gg
24aa-
24ff
24gg
=137
8aa-
8bb-
8gg
=138
8ee-
8eee-
8eee-
=139
16ddd
16ccc
16bb-
16aa-
16gg
16ff
=140
4ee-
16ff
16dd
=141
8ee-
8r
8r
=142
8b-
24gg
24dd
24ee-
24gg
24dd
24ee-
=143
16dd
16cc
16b-
16a-
16g
16f
=144
4e-
16f
16d
=145
8dd-
8cc
8ee-
=146
4g
16a-
16f
=147
8ddd-
8ccc
8eee-
=148
4gg
16aa-
16ff
=149
*Xtuplet
24ee-
24gg
24bb-
24eee-
24bb-
24gg
24aa-
24ff
24dd
=150
24ee-
24gg
24b-
24ee-
24b-
24g
24a-
24f
24d
=151
8e-
8r
8e-
=152
8e-
8r
8r
==
*-
